X:119
T:Go To The Devil and..,aka. JBs.119
S:Jas.Blackshaw MS, 1837, N.Shropshire
A:North Shropshire
Z:T. Weatherall 2006
M:6/8
L:1/8
Q:3/8=100
R:Jig
N:The common time bit seems to have strayed in from somewhere else.
C:Untitled in MS
K:F
c|cff fed|cdc cAc|cff f2g|afd d2c|!
cff fed|cdc cAc|faf gbg|gff f2:|!
|:g>ge>e|f>fd>d|e>ec>c|dagf e2d2|c2c>cc2:|!
|:câ€™af fef|dBBB3|câ€™ag gaf|ecc c3|!
cff fed|cdc cAc|faf gbg|gff f2:|!
|:a2 af efge|fagb acâ€™eg|f2f>f f2:|

